X:73
T:Jig of the Dead, The
T:Sean McGuire's
T:Haley's Favourite
R:jig
D:Skylark: Skylark.
D:De Dannan: Ballroom
Z:id:hn-jig-73
M:6/8
K:Edor
EB,E GEG | BGB e2f | gfe dBG | FAG FED |
EB,E GEG | BGB e2f | gfe dBA |1 GEE E2F :|2 GEE E2f ||
|: gGG Gge | dBG G2f | gfe dBG | FAG FED |
[1 gGG Gge | dBG G2f | gfe dBA | GEE E2f :|
[2 EB,E GEG | BGB e2f | gfe dBA | GEE E2F ||
P:Variations
|: EB,E GEG | BGB e2f | ged BAG | FAG FED |
EB,E GEG | BGB e2f | gfe dBA |1 GEE E2F :|2 GEE E2f ||
|: gGG Gge | dBG G2f | ged BAG | FAG FED |
[1 gGG Gge | dBG G2f | gfe dBA | GEE E2f :|
[2 EB,E GEG | BGB e2f | gfe dBA | GEE E2F ||
P:More variations
|: EGE GEG | BGB e2a | gfe dcB | ABG FED |
EGE ~G3 | BGB e2a | gfe dcB |1 AGF E2D :|2 AGF E2f ||
|: ~g3 GBe | dBG G2a | gfe dcB | ABG FED |
[1 gGG Gg/f/e | dBG G2a | gfe dcB | AGF Efd :|
[2 ~E3 ~G3 | BGB e2f | gfe dcB | AGF E2D ||

